Origami/32x32/apps/dassault-systemes.draftsight.svg

<svg width="32" height="32" version="1.1" viewBox="0 0 32 32" xmlns="http://www.w3.org/2000/svg">
 <path d="m2.9895101 11.260261a1.6101795 1.3906095 75 0 0 -0.9263876 1.915039l4.444836 16.588356a1.6101795 1.3906095 75 0 0 1.7597946 1.195279c4.6819619-1.254529 7.3197349-6.707362 5.8671249-12.128579-1.452612-5.421219-6.4634069-8.824623-11.145368-7.570095z" style="opacity:.2"/>
 <path d="m14.658494 3.0009682a1.7144691 1.8262839 0 0 0 -1.658494 1.8249127v24.348017a1.7144691 1.8262839 0 0 0 1.714297 1.826101h12.571516a1.7144691 1.8262839 0 0 0 1.502242 -2.705863l-12.571516-24.348017a1.7144691 1.8262839 0 0 0 -1.558045 -0.9451505z" style="opacity:.2"/>
 <path d="m2.9895101 10.260261a1.6101795 1.3906095 75 0 0 -0.9263876 1.915039l4.444836 16.588356a1.6101795 1.3906095 75 0 0 1.7597946 1.195279c4.6819619-1.254529 7.3197349-6.707362 5.8671249-12.128579-1.452612-5.421219-6.4634069-8.8246231-11.145368-7.570095z" style="fill:#79b444"/>
 <path d="m4.7539062 10.003906c-0.5879293 0.016412-1.1784267 0.099044-1.7636718 0.25586a1.6101795 1.3906095 75 0 0 -0.9277344 1.916015l0.0097656 0.033203a1.6101795 1.3906095 75 0 1 0.9179688 -0.949218c4.681961-1.254528 9.6919196 2.149093 11.144532 7.570312 0.225459 0.841425 0.340918 1.682633 0.376953 2.509766 0.051603-1.142835-0.059736-2.325896-0.376953-3.509766-1.271036-4.743566-5.2653543-7.9410565-9.3808598-7.826172z" style="fill:#ffffff;opacity:.2"/>
 <path d="m14.658494 2.0009683a1.7144691 1.8262839 0 0 0 -1.658494 1.8249127v24.348017a1.7144691 1.8262839 0 0 0 1.714297 1.826101h12.571516a1.7144691 1.8262839 0 0 0 1.502242 -2.705863l-12.571516-24.348017a1.7144691 1.8262839 0 0 0 -1.558045 -0.9451505z" style="fill:#35aabd"/>
 <path d="m20.999999 18.499985s-4.499999 0.1-4.499999 1.5 4 4.7 4 6.1-4.5 1.4-4.5 1.4" style="fill:none;opacity:.2;stroke-linejoin:round;stroke-width:3;stroke:#000000"/>
 <path d="m20.999999 17.5s-4.499999 0.1-4.499999 1.5 4 4.7 4 6.1-4.5 1.4-4.5 1.4" style="fill:none;stroke-linejoin:round;stroke-width:3;stroke:#ffffff"/>
 <path d="m5.7050781 14.113515c-0.092804 0.01021-0.1865717 0.02286-0.28125 0.01367l3.5195313 13.132815c1.9930186-1.42366 3.1772506-4.352156 2.2929686-7.652344-0.815591-3.043827-3.0041059-5.018487-5.251953-5.492188-0.094652-0.01994-0.1864928-0.01216-0.2792969-2e-3z" style="opacity:.2"/>
 <path d="m5.7050781 13.113281c-0.092804 0.010213-0.1865717 0.022857-0.28125 0.013672l3.5195313 13.132813c1.9930186-1.42366 3.1772506-4.352156 2.2929686-7.652344-0.815591-3.043827-3.0041059-5.018487-5.251953-5.492188-0.0946525-0.019945-0.1864928-0.012165-0.2792969-0.001953z" style="fill:#ffffff"/>
 <path d="M 14.658203,2 A 1.7144691,1.8262839 0 0 0 13,3.8261719 l 0,1 A 1.7144691,1.8262839 0 0 1 14.658203,3 1.7144691,1.8262839 0 0 1 16.216797,3.9453125 L 28.787109,28.294922 a 1.7144691,1.8262839 0 0 1 0.146485,0.380859 1.7144691,1.8262839 0 0 0 -0.146485,-1.380859 L 16.216797,2.9453125 A 1.7144691,1.8262839 0 0 0 14.658203,2 Z" style="fill:#ffffff;opacity:.2"/>
</svg>

<svg xmlns="http://www.w3.org/2000/svg" width="32" height="32" version="1.1" viewBox="0 0 32 32">
 <path style="opacity:0.2" d="M 2.9895101,11.260261 A 1.6101795,1.3906095 75 0 0 2.0631225,13.1753 l 4.444836,16.588356 a 1.6101795,1.3906095 75 0 0 1.7597946,1.195279 C 12.949715,29.704406 15.587488,24.251573 14.134878,18.830356 12.682266,13.409137 7.6714711,10.005733 2.9895101,11.260261 Z"/>
 <path style="opacity:0.2" d="M 14.658494,3.0009682 A 1.7144691,1.8262839 0 0 0 13,4.8258809 l 0,24.3480171 a 1.7144691,1.8262839 0 0 0 1.714297,1.826101 l 12.571516,0 a 1.7144691,1.8262839 0 0 0 1.502242,-2.705863 L 16.216539,3.9461187 A 1.7144691,1.8262839 0 0 0 14.658494,3.0009682 Z"/>
 <path style="fill:#79b444" d="M 2.9895101,10.260261 A 1.6101795,1.3906095 75 0 0 2.0631225,12.1753 l 4.444836,16.588356 a 1.6101795,1.3906095 75 0 0 1.7597946,1.195279 C 12.949715,28.704406 15.587488,23.251573 14.134878,17.830356 12.682266,12.409137 7.6714711,9.0057329 2.9895101,10.260261 Z"/>
 <path style="opacity:0.2;fill:#ffffff" d="M 4.7539062 10.003906 C 4.1659769 10.020318 3.5754795 10.10295 2.9902344 10.259766 A 1.6101795 1.3906095 75 0 0 2.0625 12.175781 L 2.0722656 12.208984 A 1.6101795 1.3906095 75 0 1 2.9902344 11.259766 C 7.6721954 10.005238 12.682154 13.408859 14.134766 18.830078 C 14.360225 19.671503 14.475684 20.512711 14.511719 21.339844 C 14.563322 20.197009 14.451983 19.013948 14.134766 17.830078 C 12.86373 13.086512 8.8694117 9.8890215 4.7539062 10.003906 z"/>
 <path style="fill:#35aabd" d="M 14.658494,2.0009683 A 1.7144691,1.8262839 0 0 0 13,3.825881 l 0,24.348017 a 1.7144691,1.8262839 0 0 0 1.714297,1.826101 l 12.571516,0 a 1.7144691,1.8262839 0 0 0 1.502242,-2.705863 L 16.216539,2.9461188 A 1.7144691,1.8262839 0 0 0 14.658494,2.0009683 Z"/>
 <path style="opacity:0.2;fill:none;stroke:#000000;stroke-width:3;stroke-linejoin:round" d="m 20.999999,18.499985 c 0,0 -4.499999,0.1 -4.499999,1.5 0,1.4 4,4.7 4,6.1 0,1.4 -4.5,1.4 -4.5,1.4"/>
 <path style="fill:none;stroke:#ffffff;stroke-width:3;stroke-linejoin:round" d="m 20.999999,17.5 c 0,0 -4.499999,0.1 -4.499999,1.5 0,1.4 4,4.7 4,6.1 0,1.4 -4.5,1.4 -4.5,1.4"/>
 <path style="opacity:0.2" d="m 5.7050781,14.113515 c -0.092804,0.01021 -0.1865717,0.02286 -0.28125,0.01367 L 8.9433594,27.26 C 10.936378,25.83634 12.12061,22.907844 11.236328,19.607656 10.420737,16.563829 8.2322221,14.589169 5.984375,14.115468 c -0.094652,-0.01994 -0.1864928,-0.01216 -0.2792969,-0.002 z"/>
 <path style="fill:#ffffff" d="M 5.7050781 13.113281 C 5.6122741 13.123494 5.5185064 13.136138 5.4238281 13.126953 L 8.9433594 26.259766 C 10.936378 24.836106 12.12061 21.90761 11.236328 18.607422 C 10.420737 15.563595 8.2322221 13.588935 5.984375 13.115234 C 5.8897225 13.095289 5.7978822 13.103069 5.7050781 13.113281 z"/>
 <path style="opacity:0.2;fill:#ffffff" d="M 14.658203,2 A 1.7144691,1.8262839 0 0 0 13,3.8261719 l 0,1 A 1.7144691,1.8262839 0 0 1 14.658203,3 1.7144691,1.8262839 0 0 1 16.216797,3.9453125 L 28.787109,28.294922 a 1.7144691,1.8262839 0 0 1 0.146485,0.380859 1.7144691,1.8262839 0 0 0 -0.146485,-1.380859 L 16.216797,2.9453125 A 1.7144691,1.8262839 0 0 0 14.658203,2 Z"/>
</svg>
